X: 1111
T: Hüseynî Örnek-öz
C: Rûhî Ayangil
O: Turkey
F: http://compmusic.upf.edu/node/140
N: huseyni--ornek-oz--sofyan--1--ruhi_ayangil
N: makam= huseyni
N: form= ornek-oz
N: usul= sofyan = 4/4
M: 4/4
L: 1/16
K: C _2/4B ^3/4f  
Q: 1/4=60
%%MIDI tuningsystem comma53
A2_1/4B2 c2d2 e2d2 e4  | e2^f2 g2^3/4f2 e8  | \
w:   |   | 
^f2g2 a2g2 a2^3/4f2 e4  | d2c2 d2B2 A8  | 
w:   |   | 
|


